ui/StatusQ/src/assets/img/icons/search.svg

<svg fill="none" height="24" viewBox="0 0 24 24" width="24" xmlns="http://www.w3.org/2000/svg"><path clip-rule="evenodd" d="m14.8504 15.9111c-.1795-.1796-.4641-.1942-.6734-.0504-1.0457.7187-2.3122 1.1393-3.677 1.1393-3.58985 0-6.5-2.9101-6.5-6.5 0-3.58985 2.91015-6.5 6.5-6.5 3.5899 0 6.5 2.91015 6.5 6.5 0 1.3648-.4206 2.6313-1.1393 3.677-.1438.2093-.1292.4939.0504.6734l4.6192 4.6194c.2929.2929.2929.7678 0 1.0607-.2929.2928-.7677.2928-1.0606-.0001zm.6496-5.4111c0 2.7614-2.2386 5-5 5-2.76142 0-5-2.2386-5-5 0-2.76142 2.23858-5 5-5 2.7614 0 5 2.23858 5 5z" fill="#000" fill-rule="evenodd"/></svg>

<svg width="24" height="24" viewBox="0 0 24 24" fill="none" xmlns="http://www.w3.org/2000/svg">
<path fill-rule="evenodd" clip-rule="evenodd" d="M14.8504 15.9111C14.6709 15.7315 14.3863 15.7169 14.177 15.8607C13.1313 16.5794 11.8648 17 10.5 17C6.91015 17 4 14.0899 4 10.5C4 6.91015 6.91015 4 10.5 4C14.0899 4 17 6.91015 17 10.5C17 11.8648 16.5794 13.1313 15.8607 14.177C15.7169 14.3863 15.7315 14.6709 15.9111 14.8504L20.5303 19.4698C20.8232 19.7627 20.8232 20.2376 20.5303 20.5305C20.2374 20.8233 19.7626 20.8233 19.4697 20.5304L14.8504 15.9111ZM15.5 10.5C15.5 13.2614 13.2614 15.5 10.5 15.5C7.73858 15.5 5.5 13.2614 5.5 10.5C5.5 7.73858 7.73858 5.5 10.5 5.5C13.2614 5.5 15.5 7.73858 15.5 10.5Z" fill="black"/>
</svg>
